X:1
T: Blue Bells
C:
R:Strathspey
Q:128
K:G
M:4/4
L:1/16
|:d2|gg3 f3e d4 efg2|BB3 c3A G6d2|gg3 f3e d4 efg2|BB3 c3A G6d2|
gg3 f3e d4 efg2|BB3 c3A G6d2|gg3 f3e d4 efg2|BB3 c3A G6d2|
B3G Bd3 g4 e3g|f3d fed^c d4 e3g|gg3 f3e d4 efg2|BB3 c3A G6d2|
B3G Bd3 g4 e3g|f3d fed^c d4 e3g|gg3 f3e d4 efg2|BB3 c3A G6:|
